src/images/icons/feature-permanent.svg

<svg width="134px" height="134px" viewBox="0 0 134 134" xmlns="http://www.w3.org/2000/svg" xmlns:xlink="http://www.w3.org/1999/xlink">
    <defs>
        <linearGradient x1="21.4158239%" y1="0%" x2="78.5841761%" y2="100%" id="linearGradient-1">
            <stop stop-color="#9EEAD2" offset="0%"></stop>
            <stop stop-color="#B5EA86" offset="100%"></stop>
        </linearGradient>
    </defs>
    <g istroke="none" stroke-width="1" fill="none" fill-rule="evenodd">
        <path d="M83,53.7142857 L83,81.3333333 C83,84.8925017 80.1629622,87.8002409 76.5908182,87.9901355 L76.21875,88 L58.78125,88 C55.1609084,88 52.2031925,85.2108998 52.010034,81.6991147 L52,81.3333333 L52,53.7142857 L83,53.7142857 Z M80.0625,57.0952381 L55.0625,57.0952381 L55.0625,80.7202381 C55.0625,82.9431842 56.7542241,84.7789095 58.9447995,85.0583987 L59.2332577,85.0859322 L59.5267857,85.0952381 L75.5982143,85.0952381 C77.9651489,85.0952381 79.9018548,83.2900502 80.0530041,81.0078955 L80.0625,80.7202381 L80.0625,57.0952381 Z M73.4350288,63 L75.5563492,65.1213203 L69.899,70.778 L75.5563492,76.4350288 L73.4350288,78.5563492 L67.778,72.899 L62.1213203,78.5563492 L60,76.4350288 L65.657,70.778 L60,65.1213203 L62.1213203,63 L67.778,68.657 L73.4350288,63 Z M59.75,47 L75.25,47 L77.1875,48.9047619 L83,48.9047619 L83,52 L52,52 L52,48.9047619 L57.8125,48.9047619 L59.75,47 Z" fill="url(#linearGradient-1)" fill-rule="nonzero"></path>
    </g>
</svg>

<svg xmlns="http://www.w3.org/2000/svg" viewBox="0 0 134 134">
  <defs>
    <linearGradient x1="21.416%" y1="0%" x2="78.584%" y2="100%" id="prefix__fperm__a">
      <stop stop-color="#9EEAD2" offset="0%" />
      <stop stop-color="#B5EA86" offset="100%" />
    </linearGradient>
  </defs>
  <path
    d="M83 53.714v27.62c0 3.559-2.837 6.466-6.41 6.656l-.371.01H58.78c-3.62 0-6.578-2.79-6.771-6.3l-.01-.367V53.714h31zm-2.938 3.381h-25V80.72c0 2.223 1.692 4.059 3.883 4.338l.288.028.294.01h16.071c2.367 0 4.304-1.806 4.455-4.088l.01-.288V57.095zM73.436 63l2.121 2.121-5.657 5.657 5.657 5.657-2.121 2.121-5.657-5.657-5.657 5.657L60 76.435l5.657-5.657L60 65.121 62.121 63l5.657 5.657L73.435 63zM59.75 47h15.5l1.938 1.905H83V52H52v-3.095h5.813L59.75 47z"
    fill="url(#prefix__fperm__a)" fill-rule="nonzero" />
</svg>
